src/actions/32/mail-mark-unread.svg

<svg version="1.1" viewBox="0 0 32 32" xmlns="http://www.w3.org/2000/svg">
 <defs>
  <style id="current-color-scheme" type="text/css">.ColorScheme-Text {
        color:#363636;
      }</style>
 </defs>
 <path class="ColorScheme-Text" d="m6 5c-2.1263 0-3.8499 1.6437-3.9863 3.7344l-0.013672-0.011719v0.27734 0.9668 12.066 0.9668 0.2793l0.013672-0.011719c0.13738 2.0897 1.8607 3.7324 3.9863 3.7324h20c2.1257 0 3.8489-1.6427 3.9863-3.7324l0.013672 0.011719v-0.2793-0.9668-12.066-0.9668-0.28125l-0.013672 0.011719c-0.13833-2.0888-1.8613-3.7305-3.9863-3.7305h-20zm0 1h20c1.662 0 3 1.338 3 3v0.49414l-11.988 9.3008c-0.56803 0.44064-1.4574 0.4426-2.0254 0.001953l-11.986-9.2988v-0.49805c0-1.662 1.338-3 3-3zm-3 4.7422 6.7773 5.2578-6.7773 5.2578v-10.516zm26 0v10.516l-6.7773-5.2578 6.7773-5.2578zm-18.42 5.8809 3.6035 2.7949c0.99892 0.7749 2.6339 0.7749 3.6328 0l3.6035-2.7949 7.5801 5.8809v0.49609c0 1.662-1.338 3-3 3h-20c-1.662 0-3-1.338-3-3v-0.49609l7.5801-5.8809z" fill="currentColor"/>
 <g transform="translate(-.00010183 1.204)"></g>
</svg>

<svg xmlns="http://www.w3.org/2000/svg" viewBox="0 0 32 32">
    <path fill="currentColor" d="M6 5a3.987 3.987 0 0 0-3.986 3.734L2 8.723V23.279l.014-.012A3.987 3.987 0 0 0 6 27h20a3.987 3.987 0 0 0 3.986-3.733l.014.012V8.719l-.014.011A3.987 3.987 0 0 0 26 5H6zm0 1h20c1.662 0 3 1.338 3 3v.494l-11.988 9.3c-.568.442-1.457.444-2.025.003L3 9.498V9c0-1.662 1.338-3 3-3zm-3 4.742L9.777 16 3 21.258V10.742zm26 0v10.516L22.223 16 29 10.743zm-18.42 5.881 3.603 2.795c1 .775 2.634.775 3.633 0l3.604-2.795L29 22.504V23c0 1.662-1.338 3-3 3H6c-1.662 0-3-1.338-3-3v-.496l7.58-5.88z" style="color:#050505;opacity:.7"/>
</svg>
